findly-builder/apps/searchassist/src/assets/icons/carrotright.svg

<svg width="12" height="12" viewBox="0 0 12 12" fill="none" xmlns="http://www.w3.org/2000/svg">
<path fill-rule="evenodd" clip-rule="evenodd" d="M8.41636 5.58349C8.56391 5.73104 8.57259 5.96487 8.4424 6.12257L8.41636 6.15121L4.90113 9.66644C4.74436 9.82321 4.49018 9.82321 4.33341 9.66644C4.18586 9.51889 4.17719 9.28506 4.30737 9.12736L4.33341 9.09873L7.56472 5.86735L4.33341 2.63597C4.18586 2.48843 4.17719 2.2546 4.30737 2.0969L4.33341 2.06826C4.48096 1.92071 4.71479 1.91203 4.87249 2.04222L4.90113 2.06826L8.41636 5.58349Z" fill="#9AA0A6"/>
</svg>

<svg width="12" height="12" fill="none" xmlns="http://www.w3.org/2000/svg"><path fill-rule="evenodd" clip-rule="evenodd" d="M8.416 5.583a.401.401 0 0 1 .026.54l-.026.028-3.515 3.515a.401.401 0 0 1-.594-.539l.026-.028 3.232-3.232-3.232-3.231a.401.401 0 0 1-.026-.54l.026-.028a.401.401 0 0 1 .54-.026l.028.026 3.515 3.515Z" fill="#9AA0A6"/></svg>
